static/images/illustrations/writers.svg

<?xml version="1.0" encoding="UTF-8"?>
<svg width="95px" height="83px" viewBox="0 0 95 83" version="1.1" xmlns="http://www.w3.org/2000/svg" xmlns:xlink="http://www.w3.org/1999/xlink">
    <!-- Generator: Sketch 54.1 (76490) - https://sketchapp.com -->
    <title>Group 30</title>
    <desc>Created with Sketch.</desc>
    <defs>
        <polygon id="path-1" points="0.0846153846 0.064695043 43.7647692 0.064695043 43.7647692 23.9835969 0.0846153846 23.9835969"></polygon>
    </defs>
    <g id="Page-1" stroke="none" stroke-width="1" fill="none" fill-rule="evenodd">
        <g id="Hire---illustrations" transform="translate(-439.000000, -615.000000)">
            <g id="Logo" transform="translate(416.000000, 585.000000)">
                <g id="Group-30" transform="translate(23.000000, 30.000000)">
                    <path d="M50.6431479,11.3456221 L25.7421981,11.5138249 L0.841248304,11.5138249 L1.59837178,10.7569124 L1.68249661,41.6221198 L1.68249661,72.5714286 L1.43012212,71.8986175 L13.2917232,81.6543779 L12.7869742,81.4861751 L37.0990502,81.5702765 L61.4111262,81.7384793 C61.7476255,81.7384793 62,81.9907834 62,82.3271889 C62,82.6635945 61.7476255,82.9158986 61.4111262,82.9158986 L37.0990502,83 L12.7869742,83 C12.6187246,83 12.4504749,82.9158986 12.2822252,82.8317972 L0.336499322,73.1601382 C0.168249661,72.9919355 0.0841248304,72.7396313 0,72.5714286 L0,41.6221198 L0.0841248304,10.7569124 C0.0841248304,10.3364055 0.420624152,10 0.841248304,10 L25.7421981,10.0841014 L50.6431479,10.2523041 C50.9796472,10.2523041 51.2320217,10.5046083 51.2320217,10.8410138 C51.1478969,11.093318 50.9796472,11.3456221 50.6431479,11.3456221" id="Fill-1" fill="#CCCED0"></path>
                    <g id="Group-5" transform="translate(51.000000, 41.000000)">
                        <mask id="mask-2" fill="white">
                            <use xlink:href="#path-1"></use>
                        </mask>
                        <g id="Clip-4"></g>
                        <path d="M25.0461538,0.171428571 C20.6461538,-1.28571429 3.89230769,12.6 0.0846153846,16.0285714 C7.27692308,20.7428571 18.4461538,24 26.9923077,21.6 C28.2615385,21.2571429 32.1538462,22.4571429 35.7076923,23.6571429 C39.1769231,24.8571429 42.9,22.6285714 43.3230769,18.9428571 C43.9153846,14.4857143 44.1692308,9.25714286 42.3923077,7.62857143 C39.6,5.14285714 31.2230769,2.22857143 25.0461538,0.171428571" id="Fill-3" fill="#CCCED0" mask="url(#mask-2)"></path>
                    </g>
                    <path d="M14.1420235,63.4842737 C15.4278054,62.0135486 16.8850249,60.71585 18.5136819,59.5911779 C19.3708698,59.0720984 20.2280578,58.553019 21.342402,58.206966 C21.8567148,58.0339396 22.4567463,57.9474263 23.0567779,58.0339396 C23.6568094,58.1204528 24.256841,58.2934793 24.8568725,58.6395322 C25.3711853,58.9855852 25.885498,59.6776911 25.9712168,60.2832838 C26.1426544,60.8888765 26.1426544,61.4944692 26.1426544,62.0135486 C26.0569356,63.0517075 25.885498,64.0033532 25.885498,64.8684856 C25.885498,65.3010518 25.9712168,65.6471047 26.1426544,65.8201312 C26.2283732,65.9931577 26.4855295,66.1661842 26.8284047,66.2526974 C27.5998738,66.3392106 28.4570618,66.4257239 29.3999685,66.3392106 C29.7428436,66.3392106 30,66.5987504 30,66.9448033 C30,67.2043431 29.9142812,67.3773695 29.6571248,67.4638828 C28.7142181,67.896449 27.5998738,68.1559887 26.4855295,67.896449 C25.885498,67.8099357 25.1997477,67.4638828 24.7711537,66.8582901 C24.3425598,66.2526974 24.256841,65.5605915 24.256841,65.041512 C24.256841,63.9168399 24.4282785,62.9651943 24.5139973,62.1000619 C24.5139973,61.6674957 24.5139973,61.2349295 24.4282785,60.8888765 C24.3425598,60.5428235 24.1711222,60.3697971 23.9139658,60.1967706 C22.7996215,59.4181514 20.9995269,60.1967706 19.4565886,61.2349295 C17.9136504,62.1865751 16.3707121,63.3977605 14.6563363,64.3494061 C14.4848987,64.4359194 14.1420235,64.4359194 14.0563048,64.1763796 C13.970586,63.9168399 13.970586,63.6573002 14.1420235,63.4842737 Z" id="Fill-6" fill="#204A69"></path>
                    <polygon id="Fill-8" fill="#E1E2E2" points="42.4179104 61.7710843 31 67 31 54.7710843 36.5820896 46 48 53"></polygon>
                    <path d="M62.166155,47.2816904 C64.0202357,42.9283355 56.9410183,38.7424173 50.2831828,37.6540785 C43.6253473,36.5657398 37.0517882,50.7141433 33.8492851,47.5328455 C28.7927012,42.593462 47.0806797,19.4034753 68.4026084,29.5333973 C78.0943943,34.1379073 92,47.6165638 92,47.6165638" id="Fill-10" fill="#CCCED0"></path>
                    <path d="M62.1985094,47.0277566 C62.5321749,46.1011965 62.4487585,45.0904036 61.864844,44.2480762 C61.3643458,43.4057488 60.5301822,42.6476541 59.6126023,41.9737922 C57.7774424,40.7103011 55.6920334,39.783741 53.5232081,39.1941118 C52.9392936,39.0256463 52.4387954,38.9414136 51.8548809,38.7729481 C51.6046318,38.6887153 51.2709664,38.6887153 51.0207173,38.6044826 C50.7704682,38.5202499 50.5202192,38.5202499 50.2699701,38.5202499 C49.3523901,38.5202499 48.3513938,38.8571808 47.4338139,39.44681 C45.598654,40.5418356 43.9303268,42.2264904 42.345416,43.995378 C41.5112524,44.8377054 40.7605052,45.7642655 39.8429252,46.6065929 C39.4258434,47.0277566 38.9253453,47.4489203 38.4248471,47.870084 C37.924349,48.2912477 37.3404344,48.6281787 36.5896872,48.8808769 C36.1726054,48.9651097 35.7555236,49.0493424 35.2550255,48.9651097 C34.7545273,48.8808769 34.3374455,48.6281787 34.0037801,48.2912477 C33.5032819,47.7016186 33.1696165,46.8592911 33.0862001,46.1854292 C32.835951,44.6692399 33.1696165,43.4057488 33.5866983,42.2264904 C34.5042782,39.783741 35.9223563,37.7621552 37.5072672,35.9090349 C39.092178,34.0559146 40.9273379,32.4554926 42.9293305,31.023536 C46.9333157,28.2438555 51.6046318,26.3907353 56.526197,26.0538043 C61.4477622,25.7168733 66.3693274,26.9803644 70.5401453,29.3388812 C74.7943796,31.6973979 78.5481158,34.5613111 82.2184356,37.5936897 C85.8887554,40.6260684 89.3922425,43.8269125 92.8123132,47.1119894 C93.0625623,47.3646876 93.0625623,47.7858513 92.8123132,48.0385495 C92.5620641,48.2912477 92.1449823,48.2912477 91.8947332,48.0385495 C88.4746625,44.8377054 84.9711754,41.721094 81.3008556,38.7729481 C79.4656957,37.2567588 77.6305358,35.9090349 75.7119596,34.5613111 C73.7933833,33.2135872 71.8748071,31.9500961 69.7893981,30.8550705 C65.7854129,28.6650192 61.1975131,27.5699936 56.6930297,27.9069246 C52.1885463,28.2438555 47.7674793,29.9285104 44.0137432,32.623958 C42.1785833,33.9716819 40.4268397,35.4878712 38.9253453,37.172526 C37.4238508,38.8571808 36.1726054,40.7945338 35.4218582,42.9003524 C35.0881927,43.9111452 34.8379437,45.0061709 35.0047764,45.8484983 C35.0881927,46.269662 35.2550255,46.6065929 35.5052745,46.8592911 C35.7555236,47.0277566 35.83894,47.1119894 36.1726054,46.9435239 C36.9233526,46.6908257 37.8409326,45.8484983 38.5916798,45.0904036 C39.4258434,44.2480762 40.1765906,43.4057488 41.0107542,42.5634214 C42.6790814,40.8787666 44.3474086,39.109879 46.5162339,37.7621552 C47.6006466,37.0882933 48.9353083,36.5828968 50.3533864,36.5828968 C50.6870519,36.5828968 51.1041337,36.6671296 51.3543828,36.6671296 C51.6880482,36.7513623 51.9382973,36.7513623 52.2719627,36.8355951 C52.8558772,37.0040605 53.4397917,37.0882933 54.0237062,37.2567588 C56.3593643,37.9306207 58.611606,38.9414136 60.6135986,40.5418356 C61.6145949,41.2999303 62.5321749,42.2264904 63.1995057,43.4057488 C63.5331712,43.995378 63.7000039,44.6692399 63.7834202,45.4273346 C63.8668366,46.1011965 63.7000039,46.8592911 63.3663385,47.4489203 C63.1995057,47.7858513 62.8658403,47.9543168 62.5321749,47.7858513 C62.2819258,47.7016186 62.1150931,47.2804549 62.1985094,47.0277566" id="Fill-12" fill="#204A69"></path>
                    <polygon id="Fill-14" fill="#CCCED0" points="74 11.0174927 42.3333333 62 31 54.9825073 62.75 4"></polygon>
                    <path d="M65.5882353,14.4392963 C64.7058824,13.9325515 63.5588235,13.848094 62.6764706,14.2703814 L62.3235294,14.4392963 L61.7058824,15.3683285 L58.7058824,19.9290322 L58,20.8580645 L58,21.1114369 C58,22.1249266 58.5294118,23.0539588 59.5,23.5607037 C60.3823529,24.0674485 61.5294118,24.151906 62.4117647,23.7296186 L62.7647059,23.5607037 L63.3823529,22.6316715 L66.3823529,18.0709678 L67,17.1419355 L67,16.8885631 C67,15.8750734 66.4705882,14.9460412 65.5882353,14.4392963" id="Fill-16" fill="#FFFFFF"></path>
                    <polygon id="Fill-18" fill="#204A69" points="35 65.3076923 31 63 31 67"></polygon>
                    <path d="M78,5.40693112 L70.3295455,0.674334369 C68.1988636,-0.616373835 65.4715909,-0.0140433403 64.1079545,2.137137 L63,3.85808127 L74.5056818,11 L78,5.40693112 Z" id="Fill-20" fill="#46799A"></path>
                    <path d="M62.8117917,3.03041278 C63.9701481,3.59811805 65.0457648,4.24692407 66.1213814,4.89573009 C67.1969981,5.54453611 68.2726147,6.19334213 69.4309711,6.84214815 C70.5065877,7.49095418 71.5822044,8.22086095 72.657821,8.86966697 C73.7334377,9.59957374 74.7263146,10.2483798 75.8019312,11.0593873 C76.0501505,11.2215888 76.0501505,11.5459918 75.884671,11.7892941 C75.7191915,12.0325963 75.4709723,12.0325963 75.222753,11.9514956 C74.0643967,11.3837903 72.98878,10.7349843 71.8304236,10.167279 L68.6035737,8.22086095 C67.527957,7.57205493 66.4523404,6.84214815 65.3767237,6.19334213 C64.3011071,5.46343536 63.3082302,4.81462934 62.2326135,4.00362181 C61.9843943,3.84142031 61.9016546,3.5170173 62.1498738,3.27371504 C62.2326135,3.03041278 62.5635725,2.94931203 62.8117917,3.03041278" id="Fill-22" fill="#CCCED0"></path>
                    <path d="M53.756529,59 C47.0793174,55.3155824 43.2873207,50.3459029 44.1116678,47.775379 C45.9252315,42.2915946 59.6918281,51.6311648 62,47.6896948" id="Fill-24" fill="#CCCED0"></path>
                    <path d="M53.639731,58.9314496 C50.9422597,57.6074873 48.4133804,55.9525344 46.221685,53.8838433 C45.1258373,52.8081239 44.1142855,51.6496569 43.4399177,50.1601993 C43.1027338,49.4154705 42.8498459,48.5052465 43.1027338,47.5122747 C43.2713258,47.0157889 43.4399177,46.6020506 43.7771016,46.1883124 C44.1142855,45.7745742 44.5357654,45.5263313 45.0415413,45.360836 C45.968797,45.0298454 46.8117568,44.9470978 47.5704206,45.0298454 C48.4133804,45.0298454 49.1720442,45.1953407 49.930708,45.360836 C51.4480356,45.6090789 52.8810672,46.1055648 54.2298028,46.519303 C55.6628344,46.9330412 57.0115701,47.3467794 58.3603057,47.5950224 C59.0346735,47.7605177 59.7090413,47.8432653 60.3834092,47.8432653 C60.973481,47.8432653 61.4792569,47.67777 61.8164408,47.3467794 C62.0693287,47.0985365 62.4065126,47.0157889 62.7436965,47.2640318 C62.9965845,47.4295271 63.0808804,47.8432653 62.9122885,48.0915082 C62.6594006,48.5052465 62.2379207,48.9189847 61.8164408,49.08448 C61.3949609,49.3327229 60.973481,49.4154705 60.5520011,49.4154705 C59.7090413,49.4982182 58.9503776,49.4154705 58.1917138,49.3327229 C56.6743862,49.08448 55.2413545,48.7534894 53.8083229,48.3397512 C52.3752913,47.9260129 51.0265557,47.5950224 49.5935241,47.2640318 C48.9191562,47.0985365 48.2447884,47.0157889 47.5704206,46.9330412 C46.8960528,46.8502936 46.3059809,46.9330412 45.8002051,47.0985365 C45.3787252,47.2640318 45.0415413,47.5950224 44.8729493,48.0087606 C44.7886533,48.4224988 44.8729493,49.0017323 45.0415413,49.5809658 C45.5473171,50.7394328 46.3902769,51.8151522 47.4018286,52.8081239 C49.3406361,54.7940674 51.7009235,56.4490203 54.2298028,57.8557302 C54.5669867,58.0212255 54.6512827,58.4349637 54.4826907,58.7659543 C54.3983948,58.9314496 53.9769149,59.0969449 53.639731,58.9314496" id="Fill-26" fill="#204A69"></path>
                    <path d="M1,72.9269643 C3.48324414,73.3356596 8.44973242,72.518269 11.0157514,72.0278347 C11.8434994,71.8643565 12.6712475,72.43653 12.7540223,73.3356596 C12.9195719,75.6243533 13.1678963,79.6295673 12.8367971,82" id="Fill-28" fill="#CCCED0"></path>
                </g>
            </g>
        </g>
    </g>
</svg>

<svg width="95" height="83" xmlns="http://www.w3.org/2000/svg" xmlns:xlink="http://www.w3.org/1999/xlink"><defs><path id="a" d="M.085.065h43.68v23.919H.085z"/></defs><g fill="none" fill-rule="evenodd"><path d="M50.643 11.346l-24.9.168H.84l.757-.757.084 30.865v30.95l-.252-.673 11.862 9.755-.505-.168 24.312.084 24.312.168c.337 0 .589.253.589.59a.575.575 0 0 1-.589.588L37.1 83H12.787c-.168 0-.337-.084-.505-.168L.336 73.16c-.168-.168-.252-.42-.336-.589V41.622l.084-30.865c0-.42.337-.757.757-.757l24.901.084 24.901.168c.337 0 .589.253.589.589-.084.252-.252.505-.589.505" fill="#CCCED0"/><g transform="translate(51 41)"><mask id="b" fill="#fff"><use xlink:href="#a"/></mask><path d="M25.046.171C20.646-1.286 3.892 12.6.085 16.03 7.277 20.743 18.446 24 26.992 21.6c1.27-.343 5.162.857 8.716 2.057 3.469 1.2 7.192-1.028 7.615-4.714.592-4.457.846-9.686-.93-11.314C39.6 5.143 31.222 2.229 25.045.17" fill="#CCCED0" mask="url(#b)"/></g><path d="M14.142 63.484a23.572 23.572 0 0 1 4.372-3.893c.857-.519 1.714-1.038 2.828-1.384.515-.173 1.115-.26 1.715-.173.6.086 1.2.26 1.8.606.514.346 1.028 1.038 1.114 1.643.172.606.172 1.211.172 1.73-.086 1.039-.258 1.99-.258 2.855 0 .433.086.78.258.952.085.173.343.346.685.433.772.086 1.63.173 2.572.086.343 0 .6.26.6.606 0 .26-.086.432-.343.519-.943.432-2.057.692-3.171.432-.6-.086-1.286-.432-1.715-1.038-.428-.605-.514-1.297-.514-1.816 0-1.125.171-2.077.257-2.942 0-.433 0-.865-.086-1.211-.085-.346-.257-.52-.514-.692-1.114-.779-2.914 0-4.457 1.038-1.543.952-3.086 2.163-4.8 3.114-.172.087-.515.087-.6-.173-.086-.26-.086-.519.085-.692z" fill="#204A69"/><path fill="#E1E2E2" d="M42.418 61.771L31 67V54.771L36.582 46 48 53z"/><path d="M62.166 47.282c1.854-4.354-5.225-8.54-11.883-9.628-6.658-1.088-13.231 13.06-16.434 9.879-5.056-4.94 13.232-28.13 34.554-18C78.094 34.138 92 47.617 92 47.617" fill="#CCCED0"/><path d="M62.199 47.028c.333-.927.25-1.938-.334-2.78-.5-.842-1.335-1.6-2.252-2.274-1.836-1.264-3.921-2.19-6.09-2.78-.584-.168-1.084-.253-1.668-.421-.25-.084-.584-.084-.834-.169-.25-.084-.5-.084-.751-.084-.918 0-1.919.337-2.836.927-1.835 1.095-3.504 2.78-5.089 4.548-.834.843-1.584 1.77-2.502 2.612-.417.42-.918.842-1.418 1.263a5.49 5.49 0 0 1-1.835 1.01c-.417.085-.834.17-1.335.085a2.288 2.288 0 0 1-1.251-.674c-.5-.59-.834-1.432-.918-2.106-.25-1.516.084-2.78.5-3.959.918-2.442 2.336-4.464 3.921-6.317 1.585-1.853 3.42-3.454 5.422-4.885 4.004-2.78 8.676-4.633 13.597-4.97 4.922-.337 9.843.926 14.014 3.285 4.254 2.358 8.008 5.222 11.678 8.255 3.67 3.032 7.174 6.233 10.594 9.518.25.253.25.674 0 .927a.65.65 0 0 1-.917 0c-3.42-3.201-6.924-6.318-10.594-9.266-1.835-1.516-3.67-2.864-5.589-4.212-1.919-1.347-3.837-2.61-5.923-3.706-4.004-2.19-8.591-3.285-13.096-2.948-4.504.337-8.926 2.022-12.68 4.717-1.834 1.348-3.586 2.864-5.088 4.549-1.501 1.684-2.752 3.622-3.503 5.727-.334 1.011-.584 2.106-.417 2.948.083.422.25.759.5 1.011.25.169.334.253.668.085.75-.253 1.668-1.096 2.419-1.854.834-.842 1.585-1.684 2.419-2.527 1.668-1.684 3.336-3.453 5.505-4.8 1.085-.675 2.42-1.18 3.837-1.18.334 0 .751.084 1.001.084.334.084.584.084.918.169.584.168 1.168.252 1.752.42 2.335.675 4.588 1.685 6.59 3.286 1 .758 1.918 1.684 2.586 2.864.333.59.5 1.263.583 2.021.084.674-.083 1.432-.417 2.022-.166.337-.5.505-.834.337-.25-.084-.417-.506-.333-.758" fill="#204A69"/><path fill="#CCCED0" d="M74 11.017L42.333 62 31 54.983 62.75 4z"/><path d="M65.588 14.44c-.882-.507-2.03-.592-2.912-.17l-.352.17-.618.928-3 4.561-.706.93v.252c0 1.014.53 1.943 1.5 2.45.882.506 2.03.59 2.912.169l.353-.17.617-.928 3-4.561.618-.93v-.252c0-1.014-.53-1.943-1.412-2.45" fill="#FFF"/><path fill="#204A69" d="M35 65.308L31 63v4z"/><path d="M78 5.407L70.33.674c-2.131-1.29-4.858-.688-6.222 1.463L63 3.858 74.506 11 78 5.407z" fill="#46799A"/><path d="M62.812 3.03c1.158.568 2.234 1.217 3.31 1.866 1.075.649 2.15 1.297 3.309 1.946 1.076.649 2.151 1.379 3.227 2.028 1.075.73 2.068 1.378 3.144 2.19.248.162.248.486.083.73-.166.243-.414.243-.662.161-1.159-.567-2.234-1.216-3.393-1.784l-3.226-1.946c-1.076-.649-2.152-1.379-3.227-2.028-1.076-.73-2.069-1.378-3.144-2.19-.249-.162-.331-.486-.083-.73.083-.243.414-.324.662-.243M53.757 59c-6.678-3.684-10.47-8.654-9.645-11.225 1.813-5.483 15.58 3.856 17.888-.085" fill="#CCCED0"/><path d="M53.64 58.931c-2.698-1.324-5.227-2.978-7.418-5.047-1.096-1.076-2.108-2.234-2.782-3.724-.337-.745-.59-1.655-.337-2.648.168-.496.337-.91.674-1.324.337-.413.759-.662 1.265-.827.927-.331 1.77-.414 2.528-.331.843 0 1.602.165 2.36.33 1.518.25 2.951.746 4.3 1.16 1.433.413 2.782.827 4.13 1.075a8.461 8.461 0 0 0 2.023.248c.59 0 1.096-.165 1.433-.496.253-.248.59-.331.928-.083.253.166.337.58.168.828-.253.413-.674.827-1.096.992a2.413 2.413 0 0 1-1.264.331c-.843.083-1.602 0-2.36-.082a37.433 37.433 0 0 1-4.384-.993 78.68 78.68 0 0 0-4.214-1.076c-.675-.165-1.35-.248-2.024-.331a4.043 4.043 0 0 0-1.77.166 1.655 1.655 0 0 0-.927.91c-.084.413 0 .993.169 1.572.505 1.158 1.348 2.234 2.36 3.227 1.939 1.986 4.299 3.641 6.828 5.048.337.165.421.579.253.91-.085.165-.506.33-.843.165" fill="#204A69"/><path d="M1 72.927c2.483.409 7.45-.409 10.016-.9a1.46 1.46 0 0 1 1.738 1.309c.166 2.288.414 6.294.083 8.664" fill="#CCCED0"/></g></svg>
